X:100
T:100 When Chloe
C:Welch MS
I:abc2nwc
M:3/4
L:1/8
K:C
V:1 bracket=2
c2|(c2G2)e2|e2d2ef|g2f2e2|d4d2|g2d2e2|d2G2A2|G6-|G4c2|
(c2G2)e2|e2d2ef|g2f2e2|d4d2|g2d2e2|d2G2A2|(G6|G4)||
G2|B2d2g2|d2B2G2|c2f2e2|d4g2|g2c2d2|d2G2B2|c6-|c4G2|
B2d2g2|d2B2G2|c2f2e2|d4g2|g2c2d2|d2G2B2|c6-|c4|]
V:2 clef=bass
c2|(c2e2)g2|c'2g2e2|e2d2c2|g4g2|g2b2c'2|g4d2|G6-|G4c2|
(c2e2)g2|c'2g2e2|e2d2c2|g4g2|g2b2c'2|g4d2|G6-|G4||
g2|g2f2e2|f2g2g2|e2d2c2|g4g2|c'4e2|g4G2|c6-|c4g2|
g2f2e2|f2g2g2|e2d2c2|g4g2|c'4e2|g4G2|c6-|c4|]

